src/24/actions/transform-skew-horizontal.svg

<svg xmlns="http://www.w3.org/2000/svg" width="24" height="24" viewBox="0 0 24 24">
 <defs>
  <style id="current-color-scheme" type="text/css">
   .ColorScheme-Text { color:#565656; } .ColorScheme-Highlight { color:#5294e2; }
  </style>
 </defs>
 <path style="fill:currentColor" class="ColorScheme-Text" d="M 3 0 L 0 2.5 L 3 5 L 3 3 L 6 3 L 6 2 L 3 2 L 3 0 z M 3 5 L 0.25390625 5 A 0.71624863 0.34803699 34.650572 0 0 0.12109375 5.4980469 L 9.7382812 18.5 A 0.71624863 0.34803699 34.650572 0 0 10.607422 18.998047 L 23.746094 18.998047 A 0.71624863 0.34803699 34.650572 0 0 23.878906 18.5 L 14.261719 5.4980469 A 0.71624863 0.34803699 34.650572 0 0 13.392578 5 L 3 5 z M 1.4902344 5.9960938 L 13.628906 5.9960938 L 22.509766 18.003906 L 10.373047 18.003906 L 1.4902344 5.9960938 z M 21 19 L 21 21 L 18 21 L 18 22 L 21 22 L 21 24 L 24 21.5 L 21 19 z"/>
 <path style="fill:currentColor;opacity:0.3" class="ColorScheme-Text" d="M 1.9921875 6 C 1.7154326 5.99991 1.656172 6.2229869 1.859375 6.4980469 L 10 17.501953 C 10.203354 17.777013 10.592522 18.00009 10.869141 18 L 22.005859 18 C 22.282614 18.00009 22.341875 17.777013 22.138672 17.501953 L 14 6.4980469 C 13.796646 6.2229869 13.407478 5.99991 13.130859 6 L 1.9921875 6 z"/>
</svg>

<svg xmlns="http://www.w3.org/2000/svg" width="24" height="24"><defs><style id="current-color-scheme" type="text/css">.ColorScheme-Text{color:#565656}</style></defs><path class="ColorScheme-Text" d="M3 0L0 2.5 3 5V3h3V2H3V0zm0 5H.254a.716.348 34.65 0 0-.133.498L9.738 18.5a.716.348 34.65 0 0 .87.498h13.138a.716.348 34.65 0 0 .133-.498L14.262 5.498a.716.348 34.65 0 0-.87-.498H3zm-1.51.996H13.63l8.88 12.008H10.374L1.49 5.996zM21 19v2h-3v1h3v2l3-2.5-3-2.5z" fill="currentColor"/><path class="ColorScheme-Text" d="M1.992 6c-.277 0-.336.223-.133.498L10 17.502c.203.275.593.498.87.498h11.136c.277 0 .336-.223.133-.498L14 6.498c-.203-.275-.593-.498-.87-.498H1.993z" fill="currentColor" opacity=".3"/></svg>
